X: 1037
T:An Buachaillin Dreoite (A18)
N: page A18
N: heptatonic
R: Jig
M: 6/8
L: 1/8
K: G
d|:"G"DGG ~A2G|AdG-G2 d|DGG ~A2 G|"D7"cAG FDC|
"G+"DGG ~A2 G|AdG- GAd|"D7"e3 gfd|[1 cAF "G+"G2d:|[2cAF "G+"Gdc|:
"G+"B3 cBc|ced G2 G|B3 GBd|"D7"cAD FGA|"G+" B3 cBc|
"D7"dAd efg|afa gfd|[1cAF "G+"Gdc:|[2cAF "G+" d|
